resources/assets/svg/elixir.svg

<svg width="20" height="20" viewBox="0 0 20 20" xmlns="http://www.w3.org/2000/svg"><title>elixir</title><defs><linearGradient x1="1.213%" y1="88.895%" x2="88.28%" y2="23.015%" id="a"><stop stop-color="#231F20" stop-opacity="0" offset="0%"/><stop stop-color="#231F20" stop-opacity="0" offset="7%"/><stop stop-color="#400161" offset="100%"/></linearGradient><linearGradient x1="48.025%" y1="-31.045%" x2="50.923%" y2="115.195%" id="b"><stop stop-color="#231F20" stop-opacity="0" offset="0%"/><stop stop-color="#231F20" stop-opacity="0" offset="7%"/><stop stop-color="#400161" offset="100%"/></linearGradient><linearGradient x1="-10.276%" y1="86.775%" x2="121.242%" y2="17.742%" id="c"><stop stop-color="#231F20" stop-opacity="0" offset="0%"/><stop stop-color="#231F20" stop-opacity="0" offset="7%"/><stop stop-color="#400161" offset="100%"/></linearGradient><linearGradient x1="122.552%" y1="33.262%" x2="-10.713%" y2="74.341%" id="d"><stop stop-color="#231F20" stop-opacity="0" offset="0%"/><stop stop-color="#231F20" stop-opacity="0" offset="7%"/><stop stop-color="#400161" offset="100%"/></linearGradient><linearGradient x1="-77.453%" y1="33.022%" x2="72.628%" y2="52.275%" id="e"><stop stop-color="#231F20" stop-opacity="0" offset="0%"/><stop stop-color="#231F20" stop-opacity="0" offset="7%"/><stop stop-color="#400161" offset="100%"/></linearGradient><linearGradient x1="-45.478%" y1="88.514%" x2="137.376%" y2="9.572%" id="f"><stop stop-color="#231F20" stop-opacity="0" offset="0%"/><stop stop-color="#231F20" stop-opacity="0" offset="7%"/><stop stop-color="#400161" offset="100%"/></linearGradient><linearGradient x1="98.17%" y1="-19.226%" x2="-.221%" y2="75.94%" id="g"><stop stop-color="#231F20" stop-opacity="0" offset="0%"/><stop stop-color="#231F20" stop-opacity="0" offset="7%"/><stop stop-color="#400161" stop-opacity=".4" offset="100%"/></linearGradient><linearGradient x1="111.152%" y1="129.133%" x2="-19.896%" y2="-6.027%" id="h"><stop stop-color="#231F20" stop-opacity="0" offset="0%"/><stop stop-color="#231F20" stop-opacity="0" offset="7%"/><stop stop-color="#400161" offset="100%"/></linearGradient></defs><g fill="none" fill-rule="evenodd"><path d="M8.183 6.34s1.786 1.964 3.304 3.303c1.473 1.34 1.83 2.678 1.785 3.437-.134 4.777-3.437 6.607-6.785 6.518-3.215-.09-4.286-3.75-3.884-7.187.446-3.437.4-8.392 3.75-11.517 0 0-.134 3.393 1.83 5.446z" fill="url(#a)" transform="translate(3)"/><path d="M9.344 6.473c1.872 1.623 3.928 4.643 3.928 6.652 0 1.92-3.75 2.902-6.473 2.902-2.01 0-6.028-.938-6.028-2.456 0-3.302.268-3.347 1.697-7.186.356-.982-1.207 7.232 4.284 7.01 5.492-.224 5.536-3.35 2.188-5.894-1.34-1.027-1.116-1.563-1.116-1.563" fill="url(#b)" transform="translate(3)"/><path d="M9.79 6.875s-.223 1.786.223 4.152c.49 2.41 1.25 7.723-4.017 8.616-2.456-.045-3.215-3.438-3.215-3.438S1.264 2.812 7.47.223c.088.982.177 2.947.892 4.643.044.045.4.938 1.428 2.01z" fill="url(#c)" transform="translate(3)"/><path d="M8.183 4.286S7.647 3.126 7.47.268c0 0-1.474.223-3.037 2.634C3.317 4.598 1.8 7.455 1.085 10c-.938 3.348-.045 6.473 1.696 7.946 2.1 1.786 4.198 1.92 5.403.938 1.07-.848 1.786-1.74 2.01-3.304l-.358.045s-.223 1.116-1.027 2.098c-.625.76-2.232 1.83-3.26 1.34-1.517-.67-1.472-2.143-.98-3.35.535-1.338 2.23-2.41 2.588-4.374.357-2.1-.312-2.68-.134-4.6.134-1.56 1.16-2.454 1.16-2.454z" fill="url(#d)" transform="translate(3)"/><path d="M5.237 12.41s-.045-1.92-.313-3.347c-.223-1.34-.803-3.26.134-4.822.938-1.606 2.5-2.544 2.5-2.544s.18 1.072.446 2.322c0 0-1.517 1.518-1.65 3.705-.046 1.027-1.117 4.688-1.117 4.688z" fill="url(#e)" transform="translate(3)"/><path d="M5.37 12.32s.268-2.677.626-4.15c.446-1.83.803-3.393 2.098-4.152" fill="url(#f)" transform="translate(3)"/><path d="M6.397 19.196s.804-.312-.446-.535c-1.25-.223-.803-.133-.803-.133l-.4-.045s-.94-.893-.135-2.723c1.384.31 3.08.4 5.134-.09 0 .625-.447 1.428-.715 1.785-.445.625-.758.85-1.25 1.16-.534.314-.98.492-1.383.58z" fill="url(#g)" transform="translate(3)"/><path d="M12.335 16.652s-2.366.848-6.027-4.107c-3.616-4.956-2.68-6.92-2.59-7.188 0 0-.98 3.393-.98 4.866 0 1.116 5.445 10.313 8.704 7.634.268-.268.714-.893.893-1.205z" fill="url(#h)" transform="translate(3)"/></g></svg>

<?xml version="1.0" encoding="UTF-8"?>
<svg width="20px" height="20px" viewBox="0 0 20 20" version="1.1" xmlns="http://www.w3.org/2000/svg" xmlns:xlink="http://www.w3.org/1999/xlink" xmlns:sketch="http://www.bohemiancoding.com/sketch/ns">
    <!-- Generator: Sketch 3.4.2 (15855) - http://www.bohemiancoding.com/sketch -->
    <title>elixir</title>
    <desc>Created with Sketch.</desc>
    <defs>
        <linearGradient x1="1.21323577%" y1="88.8947304%" x2="88.2796015%" y2="23.0151854%" id="linearGradient-1">
            <stop stop-color="#231F20" stop-opacity="0" offset="0%"></stop>
            <stop stop-color="#231F20" stop-opacity="0" offset="7%"></stop>
            <stop stop-color="#400161" offset="100%"></stop>
        </linearGradient>
        <linearGradient x1="48.02504%" y1="-31.0454906%" x2="50.92324%" y2="115.195342%" id="linearGradient-2">
            <stop stop-color="#231F20" stop-opacity="0" offset="0%"></stop>
            <stop stop-color="#231F20" stop-opacity="0" offset="7%"></stop>
            <stop stop-color="#400161" offset="100%"></stop>
        </linearGradient>
        <linearGradient x1="-10.2763533%" y1="86.7749743%" x2="121.242144%" y2="17.7420185%" id="linearGradient-3">
            <stop stop-color="#231F20" stop-opacity="0" offset="0%"></stop>
            <stop stop-color="#231F20" stop-opacity="0" offset="7%"></stop>
            <stop stop-color="#400161" offset="100%"></stop>
        </linearGradient>
        <linearGradient x1="122.552423%" y1="33.2622733%" x2="-10.7127578%" y2="74.340802%" id="linearGradient-4">
            <stop stop-color="#231F20" stop-opacity="0" offset="0%"></stop>
            <stop stop-color="#231F20" stop-opacity="0" offset="7%"></stop>
            <stop stop-color="#400161" offset="100%"></stop>
        </linearGradient>
        <linearGradient x1="-77.4534695%" y1="33.0223052%" x2="72.6278016%" y2="52.275315%" id="linearGradient-5">
            <stop stop-color="#231F20" stop-opacity="0" offset="0%"></stop>
            <stop stop-color="#231F20" stop-opacity="0" offset="7%"></stop>
            <stop stop-color="#400161" offset="100%"></stop>
        </linearGradient>
        <linearGradient x1="-45.4777819%" y1="88.5137902%" x2="137.376423%" y2="9.57208238%" id="linearGradient-6">
            <stop stop-color="#231F20" stop-opacity="0" offset="0%"></stop>
            <stop stop-color="#231F20" stop-opacity="0" offset="7%"></stop>
            <stop stop-color="#400161" offset="100%"></stop>
        </linearGradient>
        <linearGradient x1="98.1702023%" y1="-19.2257516%" x2="-0.221077657%" y2="75.9395916%" id="linearGradient-7">
            <stop stop-color="#231F20" stop-opacity="0" offset="0%"></stop>
            <stop stop-color="#231F20" stop-opacity="0" offset="7%"></stop>
            <stop stop-color="#400161" stop-opacity="0.4" offset="100%"></stop>
        </linearGradient>
        <linearGradient x1="111.152323%" y1="129.132665%" x2="-19.8958116%" y2="-6.02681731%" id="linearGradient-8">
            <stop stop-color="#231F20" stop-opacity="0" offset="0%"></stop>
            <stop stop-color="#231F20" stop-opacity="0" offset="7%"></stop>
            <stop stop-color="#400161" offset="100%"></stop>
        </linearGradient>
    </defs>
    <g id="Page-1" stroke="none" stroke-width="1" fill="none" fill-rule="evenodd" sketch:type="MSPage">
        <g id="elixir" sketch:type="MSArtboardGroup">
            <g sketch:type="MSLayerGroup" transform="translate(3.000000, 0.000000)" id="Shape">
                <path d="M8.183,6.339 C8.183,6.339 9.969,8.304 11.487,9.643 C12.96,10.982 13.317,12.321 13.272,13.08 C13.138,17.857 9.835,19.687 6.487,19.598 C3.272,19.509 2.201,15.848 2.603,12.411 C3.049,8.973 3.004,4.018 6.353,0.893 C6.353,0.893 6.219,4.286 8.183,6.339 L8.183,6.339 L8.183,6.339 Z" fill="url(#linearGradient-1)" sketch:type="MSShapeGroup"></path>
                <path d="M9.344,6.473 C11.216,8.096 13.272,11.116 13.272,13.125 C13.272,15.045 9.522,16.027 6.799,16.027 C4.79,16.027 0.772,15.089 0.772,13.571 C0.772,10.268 1.04,10.223 2.469,6.384 C2.826,5.402 1.263,13.616 6.754,13.393 C12.246,13.17 12.29,10.045 8.942,7.5 C7.603,6.473 7.826,5.937 7.826,5.937" fill="url(#linearGradient-2)" sketch:type="MSShapeGroup"></path>
                <path d="M9.79,6.875 C9.79,6.875 9.567,8.661 10.013,11.027 C10.504,13.438 11.263,18.75 5.996,19.643 C3.54,19.598 2.781,16.205 2.781,16.205 C2.781,16.205 1.263,2.812 7.469,0.223 C7.558,1.205 7.647,3.17 8.362,4.866 C8.406,4.911 8.763,5.804 9.79,6.875 L9.79,6.875 L9.79,6.875 Z" fill="url(#linearGradient-3)" sketch:type="MSShapeGroup"></path>
                <path d="M8.183,4.286 C8.183,4.286 7.647,3.125 7.469,0.268 C7.469,0.268 5.996,0.491 4.433,2.902 C3.317,4.598 1.799,7.455 1.085,10 C0.147,13.348 1.04,16.473 2.781,17.946 C4.879,19.732 6.978,19.866 8.183,18.884 C9.254,18.036 9.969,17.143 10.192,15.58 L9.835,15.625 C9.835,15.625 9.612,16.741 8.808,17.723 C8.183,18.482 6.576,19.554 5.549,19.063 C4.031,18.393 4.076,16.92 4.567,15.714 C5.103,14.375 6.799,13.304 7.156,11.339 C7.513,9.241 6.844,8.661 7.022,6.741 C7.156,5.179 8.183,4.286 8.183,4.286 L8.183,4.286 L8.183,4.286 Z" fill="url(#linearGradient-4)" sketch:type="MSShapeGroup"></path>
                <path d="M5.237,12.411 C5.237,12.411 5.192,10.491 4.924,9.063 C4.701,7.723 4.121,5.804 5.058,4.241 C5.996,2.634 7.558,1.696 7.558,1.696 C7.558,1.696 7.737,2.768 8.004,4.018 C8.004,4.018 6.487,5.536 6.353,7.723 C6.308,8.75 5.237,12.411 5.237,12.411 L5.237,12.411 L5.237,12.411 Z" fill="url(#linearGradient-5)" sketch:type="MSShapeGroup"></path>
                <path d="M5.371,12.321 C5.371,12.321 5.638,9.643 5.996,8.17 C6.442,6.339 6.799,4.777 8.094,4.018" fill="url(#linearGradient-6)" sketch:type="MSShapeGroup"></path>
                <path d="M6.397,19.196 C6.397,19.196 7.201,18.884 5.951,18.661 C4.701,18.437 5.147,18.527 5.147,18.527 L4.746,18.482 C4.746,18.482 3.808,17.589 4.612,15.759 C5.996,16.071 7.692,16.161 9.746,15.67 C9.746,16.295 9.299,17.098 9.031,17.455 C8.585,18.08 8.272,18.304 7.781,18.616 C7.246,18.929 6.799,19.107 6.397,19.196 L6.397,19.196 L6.397,19.196 Z" fill="url(#linearGradient-7)" sketch:type="MSShapeGroup"></path>
                <path d="M12.335,16.652 C12.335,16.652 9.969,17.5 6.308,12.545 C2.692,7.589 3.629,5.625 3.719,5.357 C3.719,5.357 2.737,8.75 2.737,10.223 C2.737,11.339 8.183,20.536 11.442,17.857 C11.71,17.589 12.156,16.964 12.335,16.652 L12.335,16.652 Z" fill="url(#linearGradient-8)" sketch:type="MSShapeGroup"></path>
            </g>
        </g>
    </g>
</svg>
